!!!COM: Bach, Johann Sebastian
!!!OPR: Joh. Seb. Bachs vierstimmige Choralgesänge
!!!XEN: Four-part Chorales
!!!OTL: Chorale 121. Lobet den Herren
!!!SCT: BWV 374
!!!SCA: Thematisch-systematisches Verzeichnis der musikalischen Werke Johann Sebastian Bach: Bach-Werke-Verzeichnis (Schmieder)
!!!YOR: Bach Gesellschaft Edition xxxix
!!!ENC: Steven Rasmussen
!!!CDT: 1685/3//-1750/7/28/
!!!OCY: Deutschland
!!!YEC: Copyright (c) 1994, 2000 Center for Computer Assisted Research in the Humanities
!!!YEM: Rights to all derivative editions reserved
!!!YEN: United States of America
**kern	**kern	**kern	**kern	**silbe
*I:[BASSO]	*I:[TENORE]	*I:[ALTO]	*I:[SOPRANO]	*I:[SOPRANO]
*clefF4	*clefGv2	*clefG2	*clefG2	*
*k[b-]	*k[b-]	*k[b-]	*k[b-]	*
*d:	*d:	*d:	*d:	*
*M4/4	*M4/4	*M4/4	*M4/4	*
8GGL	8B-L	8dL	4g	Lo-
8AAJ	8AJ	8cJ	.	.
=1	=1	=1	=1	=1
8BB-L	8GL	8B-L	4d	-bet
8AAJ	8AJ	8cJ	.	.
4GG	4B-	4d	4g	den
2E-	8B-L	8dL	2g	Her-
.	16AL	16cL	.	.
.	16GJJ	16B-J	.	.
.	4c	8A	.	.
.	.	8GJ	.	.
=2	=2	=2	=2	=2
2D;	2F#;	2d;	2a;	-ren,
4r	4r	4r	4r	.
4D	4d	4f#	4a	lo-
=3	=3	=3	=3	=3
4G	8dL	4g	8b-L	-bet
.	8eJ	.	8ccJ	.
8FL	4f	4a	4dd	den
8GJ	.	.	.	.
2A	8eL	2a	2cc#	Her-
.	8d	.	.	.
.	16eL	.	.	.
.	16f#J	.	.	.
.	8gJ	.	.	.
=4	=4	=4	=4	=4
2D;	2f#;	2a;	2dd;	-ren,
8GL	4d	8gL	4b-	denn
8FJ	.	8aJ	.	.
8E-L	4fn	4b-	4b-	er
8DJ	.	.	.	.
=5	=5	=5	=5	=5
8E-L	4g	4b-	4cc	ist
8CJ	.	.	.	.
8FL	4f	4a	4cc	sehr
8FFJ	.	.	.	.
8BB-L	2f	4.b-	2dd	freund-
8C	.	.	.	.
8D	.	.	.	.
8BB-J	.	8a-	.	.
=6	=6	=6	=6	=6
2E-;	2e-;	2g;	2b-;	-lich,
4r	4r	4r	4r	.
4BB-	4f	4b-	4dd	es
=7	=7	=7	=7	=7
8FL	8fL	8aL	4cc	ist
8GJ	8B-J	8gJ	.	.
8AL	8AL	8fL	4cc	sehr
8B-J	8GJ	8eJ	.	.
8AL	8AL	8fL	4cc	köst-
8GJ	8B-J	8gJ	.	.
8FL	4c	8aL	4a	-lich,
8EJ	.	8gJ	.	.
=8	=8	=8	=8	=8
8F#L	8cL	8aL	4dd	un-
8DJ	8B-J	8f#J	.	.
8EL	8B-L	8gL	4cc	-sern
8F#J	8AJ	8aJ	.	.
4G	16B-LL	8aL	4b-	Gott
.	16cJ	.	.	.
.	8dJ	8gJ	.	.
4D	8.dL	8gL	4a	zu
.	.	8f#J	.	.
.	16cJk	.	.	.
=9	=9	=9	=9	=9
2E-	8B-	8.gL	2g	lo-
.	4d	.	.	.
.	.	16f#k	.	.
.	.	8g	.	.
.	8c	8GJ	.	.
2D;	2F#;	2d;	2a;	-ben,
=10	=10	=10	=10	=10
4GG	4G	8dL	4b-	un-
.	.	8eJ	.	.
4AA	4c	8fL	4a	-sern
.	.	8f#J	.	.
8BB-L	8dL	8gL	4g	Gott
8CJ	16cL	8e-J	.	.
.	16B-JJ	.	.	.
8DL	4A	4d	4f#	zu
8CJ	.	.	.	.
=11	=11	=11	=11	=11
8BB-L	8GL	8dL	2g	lo-
8AA	8DJ	8c	.	.
8BB-	2G	8d	.	.
8GGJ	.	8B-J	.	.
2D;	.	2d;	2a;	-ben,
.	4F#;	.	.	.
=12	=12	=12	=12	=12
4r	4r	4r	4r	.
4D	4A	4f#	4dd	sein
8GL	8GL	4d	4b-	Lob
8FJ	8AJ	.	.	.
4E-	8B-L	4g	4b-	ist
.	8cJ	.	.	.
=13	=13	=13	=13	=13
8DL	8dL	4f	4b-	schön
8CJ	8e-J	.	.	.
4BB-	8dL	8fL	4dd	und
.	8B-J	16gL	.	.
.	.	16fJJ	.	.
8BB-L	8GL	8eL	4cc	lieb-
8AAJ	8AJ	8f#J	.	.
8GGL	16B-LL	4g	4b-	-lich
.	16cJ	.	.	.
8BB-J	8dJ	.	.	.
=14	=14	=14	=14	=14
8CL	8e-L	8gL	4a	an-
8DJ	16dL	8f#J	.	.
.	16cJJ	.	.	.
8E-L	8B-L	4g	4g	-zu-
8DJ	16cL	.	.	.
.	16dJJ	.	.	.
8CL	4e-	4g	2a	-hö-
8AAJ	.	.	.	.
4D	8.dL	4f#	.	.
.	16cJk	.	.	.
=15	=15	=15	=15	=15
2GG;	2B-;	2d;	2g;	-ren.
4r	4r	4r	4r	.
8GGL	8B-L	4d	4g	Lo-
8AAJ	8AJ	.	.	.
=16	=16	=16	=16	=16
8BB-L	8GL	4d	4d	-bet
8AAJ	8AJ	.	.	.
8GGL	8B-L	4d	4g	den
8FFJ	8AJ	.	.	.
2EE-	4.G	8dL	2g	Her-
.	.	16cL	.	.
.	.	16B-J	.	.
.	.	8A	.	.
.	8c	8GJ	.	.
=17	=17	=17	=17	=17
2DD;	2F#;	2d;	2a;	-ren,
4r	4r	4r	4r	.
4D	4d	4f#	4a	lo-
=18	=18	=18	=18	=18
4G	4d	4g	8b-L	-bet
.	.	.	8ccJ	.
8FL	8AL	8aL	4dd	den
8GJ	8B-J	8eJ	.	.
4A	2A	8eL	2cc#	Her-
.	.	8f#J	.	.
4AA	.	4g	.	.
=19	=19	=19	=19	=19
2.D;	2.A;	2.f#;	2.dd;	-ren!
==|!	==|!	==|!	==|!	==|!
*-	*-	*-	*-	*-
!!!RWG: Key is interpreted using the Humdrum key tool.
!!!URL-pdf: https://s9.imslp.org/files/imglnks/usimg/7/7a/IMSLP04155-Bach_-_BGA_253-438.pdf#page=67 	Bach-Gesellschaft Ausgabe, Band 39 (pp.175-276) Leipzig: Breitkopf und Härtel, 1892. Plate B.W. XXXIX.
!!!END: 1994/07/18
!!!EMD: Converted from MuseData to Humdrum Dec 19, 2000, by Andreas Kornstaedt using muse2kern.
!!!EED: Craig Stuart Sapp
!!!EEV: 2024/03/31
!!!filter-keyboard: extract -i kern | satb2gs
!!!title: @{OTL} (@{SCT})
